X:7336
T:The Skye Gathering
O:england
B:"Ceol Na Fidhle" Vol.I (Skye 1985)
M:2/4
L:1/16
K:D
A>d|f>ed>e f<aA>d|f>gf>e d4|e2e>f g>e>f>d|
e4 A2d>e|f>ed>e f<aA>d|B<GB>d A2g2|f2f<a e>Ae<f|d4 d2:|]
f>g|a>Aa>g f>ed>e|f>Ad>e f4|g>fe>g f>ed>f|
e4 A2f>g|a>Aa>g f>ed>c|B<dB<d A2g2|f2f<a e>Ae<f|d4 d2:|]
